X: 1
T: Calliope House
R: jig
M: 6/8
L: 1/8
K: Dmaj
|dAA fAA|eAA fAA|Bee e2d|efe dBA|FAA A2F|
A2B d2e|1 f2f fed|e3 e2A:|2 f2f edc|d3 efg||
a2a faa|eaa faa|g2g fgf|efe dBA|FAA A2F|
A2B d2e|1 f2f fed|e3 efg:|2 f2f edc| d3 d3||


Tune 15	Setting 12381

